svgs/sharp-light/land-mine-on.svg

<svg xmlns="http://www.w3.org/2000/svg" viewBox="0 0 640 512"><!--! Font Awesome Pro 6.6.0 by @fontawesome - https://fontawesome.com License - https://fontawesome.com/license (Commercial License) Copyright 2024 Fonticons, Inc. --><path d="M336 0L304 0l0 16 0 160 0 16 32 0 0-16 0-160 0-16zM44.8 121.6L25.6 147.2l12.8 9.6 128 96 12.8 9.6 19.2-25.6-12.8-9.6-128-96-12.8-9.6zm569.6 25.6l-19.2-25.6-12.8 9.6-128 96-12.8 9.6 19.2 25.6 12.8-9.6 128-96 12.8-9.6zM192 336l0 32-32 0-32 0L78.2 480 64 512l35 0 442 0 35 0-14.2-32L512 368l-32 0-32 0s0 0 0 0l0-32 0-16 0-32-32 0-192 0-32 0 0 32 0 16zm224 32l-192 0 0-48 192 0 0 48zM224 400l192 0 32 0s0 0 0 0l43.2 0 35.6 80-413.5 0 35.6-80 43.2 0s0 0 0 0l32 0z"/></svg>

<svg xmlns="http://www.w3.org/2000/svg" viewBox="0 0 640 512"><!--! Font Awesome Pro 6.4.0 by @fontawesome - https://fontawesome.com License - https://fontawesome.com/license (Commercial License) Copyright 2023 Fonticons, Inc. --><path d="M336 0H304V16 176v16h32V176 16 0zM44.8 121.6L25.6 147.2l12.8 9.6 128 96 12.8 9.6 19.2-25.6-12.8-9.6-128-96-12.8-9.6zm569.6 25.6l-19.2-25.6-12.8 9.6-128 96-12.8 9.6 19.2 25.6 12.8-9.6 128-96 12.8-9.6zM192 336v32H160 128L78.2 480 64 512H99 541h35l-14.2-32L512 368H480 448h0V336 320 288H416 224 192v32 16zm224 32H224V320H416v48zM224 400H416h32 0 43.2l35.6 80H113.2l35.6-80H192h0 32z"/></svg>
